X:187
T:The Morning Thrush
R:reel
M:4/4
L:1/8
K:Dmaj
|:fag|f2ef d2AF|AdAF A2fe|dAAF dFF2|ABdf e2fe|
dAAF dAAF|BAFA dADE|EDFA defa|afef d:|
|:ABc|dcde faaf|g3e fgfe|dcde faaf|gafg eAce|
dcde faa2|bfaf efdB|BAFA defa|afef d:|
|:ABc|dAAF BAFA|D3F AFF2|dFFE F2AF|ABdf e2fe|
|dAAF dAAF|BAFA dADE|EDFA defa|afef d:||

